tiktok.svg

<svg viewBox="0 0 24 24" xmlns="http://www.w3.org/2000/svg"><path d="M9.65852 9.45171L9.65852 8.51647C9.33387 8.46508 9.00597 8.43689 8.67732 8.4322C5.49542 8.42539 2.67844 10.4874 1.72292 13.5224C0.7674 16.5574 1.89528 19.8612 4.50702 21.6784C2.55055 19.5845 2.0073 16.5364 3.11994 13.8956C4.2326 11.2547 6.7933 9.51432 9.65831 9.45181L9.65852 9.45171ZM9.83492 20.0456C11.6139 20.0432 13.0762 18.6417 13.1541 16.8644L13.1541 1.00424L16.0516 1.00424C15.9925 0.672822 15.9642 0.336632 15.9673-1.77636e-15L12.0042-1.77636e-15L12.0042 15.8449C11.9383 17.6312 10.4725 19.0462 8.68494 19.049C8.1508 19.0445 7.62533 18.9132 7.15186 18.6658C7.77429 19.5281 8.77143 20.0409 9.83492 20.0456ZM21.4635 6.38539L21.4635 5.50388C20.3971 5.5043 19.3544 5.18963 18.4663 4.5994C19.2449 5.50451 20.297 6.13146 21.4635 6.38539Z" fill="#25f4ee"/><path d="M18.4663 4.5994C17.5914 3.60314 17.1091 2.32241 17.1095 0.996487L16.0516 0.996487C16.3277 2.47804 17.2009 3.78088 18.4663 4.5994L18.4663 4.5994ZM8.67732 12.3953C7.15062 12.4031 5.82519 13.449 5.46258 14.932C5.09997 16.415 5.79327 17.9545 7.1441 18.6658C6.41221 17.6552 6.30886 16.3196 6.87658 15.2085C7.44431 14.0974 8.58717 13.3985 9.83492 13.3995C10.1676 13.4038 10.498 13.4556 10.816 13.5532L10.816 9.5207C10.4912 9.47199 10.1634 9.44638 9.83492 9.44405L9.65852 9.44405L9.65852 12.5103C9.33877 12.4245 9.00822 12.3858 8.67732 12.3953L8.67732 12.3953ZM21.4635 6.38539L21.4635 9.45171C19.4894 9.44786 17.5665 8.823 15.9673 7.66561L15.9673 15.7222C15.9588 19.7423 12.6974 22.9969 8.67732 22.9969C7.18427 22.9996 5.72717 22.5389 4.50702 21.6784C6.54314 23.8684 9.712 24.5894 12.4952 23.4958C15.2783 22.4023 17.1089 19.7169 17.1095 16.7266L17.1095 8.69287C18.7141 9.84264 20.6394 10.4594 22.6134 10.4559L22.6134 6.50779C22.2269 6.50663 21.8416 6.46564 21.4635 6.38539L21.4635 6.38539Z" fill="#fe2c55"/><path d="M15.9673 15.7222L15.9673 7.66561C17.5714 8.8164 19.497 9.43322 21.4712 9.42867L21.4712 6.3625C20.3049 6.11619 19.2503 5.49739 18.4663 4.5994C17.2009 3.78088 16.3277 2.47804 16.0516 0.996487L13.1541 0.996487L13.1541 16.8646C13.0963 18.2804 12.148 19.5042 10.7915 19.9137C9.435 20.3232 7.96794 19.8286 7.13637 18.6813C5.7853 17.97 5.09179 16.4304 5.45443 14.9473C5.81708 13.4641 7.14272 12.4182 8.66956 12.4106C9.00237 12.4136 9.33295 12.4653 9.65076 12.564L9.65076 9.49767C6.76974 9.54652 4.18967 11.293 3.07389 13.9497C1.95809 16.6063 2.51734 19.6713 4.49948 21.7627C5.73161 22.5948 7.1908 23.0259 8.67732 22.9969C12.6974 22.9969 15.9588 19.7423 15.9673 15.7222Z" fill="#000000"/></svg>

<svg viewBox="0 0 24 24" xmlns="http://www.w3.org/2000/svg"><path d="M9.659 9.452v-.936a6.906 6.906 0 0 0-.982-.084 7.275 7.275 0 0 0-4.17 13.246A7.267 7.267 0 0 1 9.658 9.452Zm.176 10.594a3.327 3.327 0 0 0 3.32-3.182V1.004h2.897A5.435 5.435 0 0 1 15.967 0h-3.963v15.845a3.327 3.327 0 0 1-3.32 3.204 3.372 3.372 0 0 1-1.532-.383 3.327 3.327 0 0 0 2.683 1.38Zm11.628-13.66v-.882a5.411 5.411 0 0 1-2.997-.905 5.496 5.496 0 0 0 2.997 1.786Z" fill="#25f4ee"/><path d="M18.466 4.6A5.458 5.458 0 0 1 17.11.995h-1.057A5.489 5.489 0 0 0 18.466 4.6Zm-9.789 7.795a3.327 3.327 0 0 0-1.533 6.27 3.32 3.32 0 0 1 2.69-5.265c.334.004.664.056.982.153V9.521a6.947 6.947 0 0 0-.981-.077h-.176v3.066a3.409 3.409 0 0 0-.982-.115Zm12.787-6.01v3.067a9.406 9.406 0 0 1-5.497-1.786v8.056a7.29 7.29 0 0 1-7.29 7.275 7.213 7.213 0 0 1-4.17-1.319 7.275 7.275 0 0 0 12.602-4.951V8.693a9.421 9.421 0 0 0 5.504 1.763V6.508a5.62 5.62 0 0 1-1.15-.123Z" fill="#fe2c55"/><path d="M15.967 15.722V7.666a9.405 9.405 0 0 0 5.504 1.763V6.362A5.497 5.497 0 0 1 18.466 4.6 5.489 5.489 0 0 1 16.052.996h-2.898v15.869a3.327 3.327 0 0 1-6.018 1.816 3.327 3.327 0 0 1 1.534-6.27c.332.003.663.054.98.153V9.498A7.267 7.267 0 0 0 4.5 21.763a7.214 7.214 0 0 0 4.177 1.234 7.29 7.29 0 0 0 7.29-7.275Z"/></svg>
